Catalina-dark/actions/22/mic-off.svg

<svg xmlns="http://www.w3.org/2000/svg" viewBox="0 0 22 22">
  <defs id="defs3051">
    <style type="text/css" id="current-color-scheme">
      .ColorScheme-Text {
        color:#f2f2f2
      }
      </style>
  </defs>
 <path 
     style="fill:currentColor;fill-opacity:1;stroke:none"      
	 class="ColorScheme-Text"
        d="M 10.999997,3 C 10.153844,3 9.4305787,3.300669 8.8281223,3.903125 8.2256658,4.505581 7.9218722,5.2304105 7.9218722,6.0765625 L 7.9218722,11 13.893748,5.028125 C 13.675777,4.432157 13.302251,3.9453075 12.773435,3.5671875 12.244618,3.1889555 11.653553,3 10.999997,3 Z m 5.537501,1.971875 c -0.0832,0 -0.156232,0.031073 -0.220313,0.095313 L 4.4531222,16.93125 c -0.06408,0.06408 -0.096875,0.138675 -0.096875,0.221875 0,0.0834 0.032797,0.157795 0.096875,0.221875 l 0.7875,0.789062 c 0.064081,0.06408 0.1369953,0.09375 0.2203125,0.09375 0.083317,0 0.1577939,-0.02967 0.221875,-0.09375 L 8.1249973,15.721875 C 8.830007,16.157931 9.5825926,16.4168 10.384372,16.5 l 0,1.270313 -2.4609373,0 c -0.1666344,0 -0.311141,0.05944 -0.4328125,0.181249 -0.1217894,0.121784 -0.1828125,0.266181 -0.1828125,0.432813 0,0.16652 0.061023,0.31114 0.1828125,0.432812 C 7.6122937,18.938979 7.7568003,19 7.9234347,19 l 6.1531253,0 c 0.166634,0 0.311141,-0.06109 0.432813,-0.182813 0.121906,-0.121672 0.182812,-0.266292 0.182812,-0.432812 0,-0.166632 -0.0609,-0.311029 -0.182812,-0.432813 -0.121672,-0.121784 -0.266179,-0.181249 -0.432813,-0.181249 l -2.460938,0 0,-1.270313 C 13.006524,16.346224 14.17479,15.744835 15.12031,14.696875 16.065595,13.648931 16.53906,12.417096 16.53906,11 l 0,-1.23125 c 0,-0.16664 -0.06114,-0.311028 -0.182813,-0.432812 -0.121906,-0.121792 -0.26774,-0.182813 -0.434374,-0.182813 -0.166635,0 -0.309461,0.06093 -0.431251,0.182813 C 15.368833,9.457722 15.30781,9.60211 15.30781,9.76875 l 0,1.23125 c 0,1.186024 -0.421213,2.199339 -1.264062,3.042187 -0.842849,0.842848 -1.857956,1.264063 -3.043751,1.264063 -0.692265,0 -1.3485019,-0.162047 -1.9703122,-0.489063 L 9.9531223,13.89375 c 0.3457877,0.121496 0.6948497,0.182652 1.0468747,0.182812 0.845527,-3.44e-4 1.570001,-0.30114 2.171876,-0.903124 C 13.77433,12.571102 14.07656,11.846144 14.07656,11 l 0,-1.23125 3.470313,-3.4703125 c 0.06408,-0.06408 0.09688,-0.138555 0.09688,-0.221875 0,-0.083304 -0.03268,-0.157795 -0.09688,-0.221875 l -0.7875,-0.7875 c -0.0642,-0.06424 -0.138439,-0.095313 -0.221875,-0.095313 z M 6.0781222,9.154688 c -0.1667523,0 -0.3125856,0.05943 -0.434375,0.18125 -0.1217894,0.121784 -0.18125,0.267734 -0.18125,0.434374 l 0,1.229688 c 0,0.711616 0.1339373,1.397413 0.403125,2.057813 l 0.971875,-0.971875 C 6.7413163,11.70133 6.6921847,11.33976 6.6921847,11 l 0,-1.229688 c 0,-0.16664 -0.061023,-0.31259 -0.1828125,-0.434374 -0.1217896,-0.121792 -0.2646156,-0.18125 -0.43125,-0.18125 z"
     />
</svg>

<svg viewBox="0 0 22 22" xmlns="http://www.w3.org/2000/svg">
<defs>
<style id="current-color-scheme" type="text/css">.ColorScheme-Text {
        color:#dedede
      }</style>
</defs>
<path class="ColorScheme-Text" d="m11 3c-0.84615 0-1.5694 0.30067-2.1719 0.90312-0.60246 0.60246-0.90625 1.3273-0.90625 2.1734v4.9234l5.9719-5.9719c-0.21797-0.59597-0.5915-1.0828-1.1203-1.4609-0.52882-0.37823-1.1199-0.56719-1.7734-0.56719zm5.5375 1.9719c-0.0832 0-0.15623 0.031073-0.22031 0.095313l-11.864 11.864c-0.06408 0.06408-0.096875 0.13868-0.096875 0.22188 0 0.0834 0.032797 0.1578 0.096875 0.22188l0.7875 0.78906c0.064081 0.06408 0.137 0.09375 0.22031 0.09375 0.083317 0 0.15779-0.02967 0.22188-0.09375l2.4422-2.4422c0.70501 0.43606 1.4576 0.69492 2.2594 0.77812v1.2703h-2.4609c-0.16663 0-0.31114 0.05944-0.43281 0.18125-0.12179 0.12178-0.18281 0.26618-0.18281 0.43281 0 0.16652 0.061023 0.31114 0.18281 0.43281 0.12167 0.12179 0.26618 0.18281 0.43281 0.18281h6.1531c0.16663 0 0.31114-0.06109 0.43281-0.18281 0.12191-0.12167 0.18281-0.26629 0.18281-0.43281 0-0.16663-0.0609-0.31103-0.18281-0.43281-0.12167-0.12178-0.26618-0.18125-0.43281-0.18125h-2.4609v-1.2703c1.3909-0.15378 2.5592-0.75516 3.5047-1.8031 0.94528-1.0479 1.4188-2.2798 1.4188-3.6969v-1.2312c0-0.16664-0.06114-0.31103-0.18281-0.43281-0.12191-0.12179-0.26774-0.18281-0.43437-0.18281-0.16664 0-0.30946 0.06093-0.43125 0.18281-0.12179 0.12178-0.18281 0.26617-0.18281 0.43281v1.2312c0 1.186-0.42121 2.1993-1.2641 3.0422s-1.858 1.2641-3.0438 1.2641c-0.69226 0-1.3485-0.16205-1.9703-0.48906l0.92344-0.92344c0.34579 0.1215 0.69485 0.18265 1.0469 0.18281 0.84553-3.44e-4 1.57-0.30114 2.1719-0.90312 0.60246-0.60234 0.90469-1.3273 0.90469-2.1734v-1.2312l3.4703-3.4703c0.06408-0.06408 0.09688-0.13856 0.09688-0.22188 0-0.083304-0.03268-0.1578-0.09688-0.22188l-0.7875-0.7875c-0.0642-0.06424-0.13844-0.095313-0.22188-0.095313zm-10.459 4.1828c-0.16675 0-0.31259 0.05943-0.43438 0.18125-0.12179 0.12178-0.18125 0.26773-0.18125 0.43437v1.2297c0 0.71162 0.13394 1.3974 0.40312 2.0578l0.97188-0.97188c-0.096181-0.38461-0.14531-0.74618-0.14531-1.0859v-1.2297c0-0.16664-0.061023-0.31259-0.18281-0.43437-0.12179-0.12179-0.26462-0.18125-0.43125-0.18125z" fill="currentColor"/>
</svg>
